X: 3425
T: PHILOMELEN WALTZ
C: Strauss
%R: waltz
B: James Kerr "Merry Melodies" v.3 p.48 #425
Z: 2016 John Chambers <jc:trillian.mit.edu>
M: 3/4
L: 1/8
K: C
ee |\
(e2G2)ee | (e2G2)ee | e2d2c2 | d4gg |\
(g2d2)gg | (g2d2)gg | a2(g2^f2) | g4ee |\
(e2G2)ee | (e2G2)fe | e2d2c2 | d4ed |\
(c2G2)c'c' | c'2b2a2 | g6 |[1 c6 :|[2 a2g2^f2 ||
|:\
g6 | (g4c'2) | c'6 | b6 |\
B6 | (B2a2) | a6 | g6 |\
g6 | (g4e'2) | e'6 | (d'3c'ba) |\
agb2b2 | agc'2c'2 | agb2b2 |[1 c'4z2 :|[2 c'4 |]

%%sep 1 1 500
%%sep 1 1 500

